src/assets/images/toolbox/svg.svg

<svg
  width="32"
  height="32"
  viewBox="0 0 32 32"
  fill="transparent"
  xmlns="http://www.w3.org/2000/svg">
  <path
    fill="black"
    d="M30.6851 19.1794C32.4384 17.4263 32.4382 14.5737 30.6851 12.8206C29.8359 11.9713 28.7066 11.5037 27.5055 11.5037C27.2203 11.5037 26.9396 11.5298 26.6657 11.5809C27.8591 10.7647 28.6327 9.39202 28.6327 7.86572C28.6327 5.3864 26.6154 3.3694 24.1359 3.3694C22.6065 3.3694 21.2314 4.14575 20.4156 5.34324C20.6855 3.91978 20.2622 2.39836 19.1806 1.31698C18.3316 0.467687 17.2022 0 16.0013 0C14.8001 0 13.6709 0.467687 12.8216 1.31698C11.7401 2.39836 11.3168 3.91978 11.5866 5.34324C10.7709 4.14587 9.39578 3.3694 7.86625 3.3694C5.38689 3.3694 3.36975 5.38628 3.36975 7.86572C3.36975 9.39214 4.14302 10.7647 5.33647 11.5809C5.05954 11.5294 4.77844 11.5035 4.49675 11.5037C3.29555 11.5037 2.16642 11.9714 1.31719 12.8207C0.467718 13.6699 0 14.7991 0 15.9999C0 17.2011 0.467718 18.3301 1.31707 19.1794C2.16629 20.0286 3.29555 20.4964 4.4965 20.4964C4.78179 20.4964 5.06244 20.4704 5.33634 20.4191C4.1429 21.2355 3.36962 22.6081 3.36962 24.1344C3.36962 26.6136 5.38664 28.6306 7.86613 28.6306C9.39566 28.6306 10.7709 27.8541 11.5866 26.6568C11.3167 28.0803 11.74 29.6018 12.8216 30.683C13.6708 31.5323 14.8001 32 16.001 32C17.2022 32 18.3315 31.5323 19.1807 30.683C20.2622 29.6016 20.6855 28.0802 20.4156 26.6568C21.2314 27.8541 22.6065 28.6306 24.1359 28.6306C26.6154 28.6306 28.6325 26.6137 28.6325 24.1344C28.6325 22.608 27.8593 21.2355 26.6657 20.4191C26.9396 20.4704 27.2204 20.4964 27.5055 20.4964C28.7066 20.4964 29.8359 20.0286 30.6851 19.1794Z"
  />
  <path
    fill="#FFB13B"
    d="M29.3282 14.1765C28.3211 13.1695 26.6882 13.1695 25.6811 14.1765H20.4028L24.1352 10.4445C25.5595 10.4445 26.714 9.28992 26.714 7.86572C26.714 6.44151 25.5595 5.28681 24.1352 5.28681C22.7107 5.28681 21.5562 6.44151 21.5562 7.86572L17.8238 11.5978V6.31978C18.831 5.31271 18.831 3.67994 17.8238 2.67287C16.8166 1.66568 15.1837 1.66568 14.1766 2.67287C13.1694 3.68006 13.1694 5.31284 14.1766 6.31978V11.5978L10.4443 7.86559C10.4443 6.44151 9.28968 5.28694 7.86538 5.28694C6.44108 5.28694 5.28642 6.44151 5.28642 7.86559C5.28642 9.28992 6.44108 10.4445 7.86525 10.4445L11.5977 14.1765H6.31933C5.31207 13.1694 3.67918 13.1695 2.67193 14.1765C1.66492 15.1837 1.66492 16.8164 2.67193 17.8236C3.67918 18.8306 5.31207 18.8306 6.31933 17.8236H11.5975L7.86538 21.5555C6.44108 21.5555 5.28642 22.71 5.28642 24.1342C5.28642 25.5585 6.44108 26.7131 7.86525 26.7131C9.28968 26.7131 10.4443 25.5585 10.4443 24.1343L14.1766 20.4022V25.6801C13.1694 26.6872 13.1694 28.3201 14.1766 29.3271C15.1838 30.3342 16.8167 30.3342 17.824 29.3271C18.831 28.3199 18.831 26.6872 17.824 25.68V20.4022L21.5562 24.1343C21.5562 25.5585 22.7107 26.7129 24.135 26.7129C25.5595 26.7129 26.7141 25.5585 26.7141 24.1343C26.7141 22.71 25.5595 21.5555 24.1352 21.5555L20.4027 17.8234H25.6811C26.6884 18.8306 28.3212 18.8306 29.3282 17.8234C30.3355 16.8163 30.3355 15.1836 29.3282 14.1765Z"
  />
</svg>

<svg xmlns="http://www.w3.org/2000/svg" width="32" height="32" fill="transparent" xmlns:v="https://vecta.io/nano">
  <path fill="#000"
    d="M30.685 19.179c1.753-1.753 1.753-4.606 0-6.359-.849-.849-1.978-1.317-3.18-1.317-.285 0-.566.026-.84.077 1.193-.816 1.967-2.189 1.967-3.715 0-2.479-2.017-4.496-4.497-4.496-1.529 0-2.904.776-3.72 1.974.27-1.423-.153-2.945-1.235-4.026C18.332.468 17.202 0 16.001 0s-2.33.468-3.18 1.317c-1.082 1.081-1.505 2.603-1.235 4.026-.816-1.197-2.191-1.974-3.72-1.974-2.479 0-4.496 2.017-4.496 4.496 0 1.526.773 2.899 1.967 3.715-.277-.051-.558-.077-.84-.077-1.201 0-2.33.468-3.18 1.317S0 14.799 0 16s.468 2.33 1.317 3.18 1.978 1.317 3.179 1.317a4.56 4.56 0 0 0 .84-.077c-1.193.816-1.967 2.189-1.967 3.715 0 2.479 2.017 4.496 4.497 4.496 1.53 0 2.905-.777 3.72-1.974-.27 1.424.153 2.945 1.235 4.026.849.849 1.979 1.317 3.179 1.317s2.33-.468 3.18-1.317c1.081-1.081 1.505-2.603 1.235-4.026.816 1.197 2.191 1.974 3.72 1.974 2.48 0 4.497-2.017 4.497-4.496 0-1.526-.773-2.899-1.967-3.715a4.56 4.56 0 0 0 .84.077c1.201 0 2.33-.468 3.18-1.317z" />
  <path fill="#ffb13b"
    d="M29.328 14.177a2.58 2.58 0 0 0-3.647 0h-5.278l3.732-3.732a2.58 2.58 0 0 0 2.579-2.579 2.58 2.58 0 0 0-2.579-2.579 2.58 2.58 0 0 0-2.579 2.579l-3.732 3.732V6.32a2.58 2.58 0 0 0 0-3.647 2.58 2.58 0 0 0-3.647 0 2.58 2.58 0 0 0 0 3.647v5.278l-3.732-3.732a2.58 2.58 0 0 0-2.579-2.579 2.58 2.58 0 0 0-2.579 2.579 2.58 2.58 0 0 0 2.579 2.579l3.732 3.732H6.319a2.58 2.58 0 0 0-3.647 0 2.58 2.58 0 0 0 0 3.647 2.58 2.58 0 0 0 3.647 0h5.278l-3.732 3.732a2.58 2.58 0 0 0-2.579 2.579 2.58 2.58 0 0 0 2.579 2.579 2.58 2.58 0 0 0 2.579-2.579l3.732-3.732v5.278a2.58 2.58 0 0 0 0 3.647 2.58 2.58 0 0 0 3.647 0 2.58 2.58 0 0 0 0-3.647v-5.278l3.732 3.732a2.58 2.58 0 0 0 2.579 2.579 2.58 2.58 0 0 0 2.579-2.579 2.58 2.58 0 0 0-2.579-2.579l-3.733-3.732h5.278a2.58 2.58 0 0 0 3.647 0 2.58 2.58 0 0 0 0-3.647z" />
</svg>
